app/views/shared/svg/k12/_svg_icon_grades_new_styles.svg

<?xml version="1.0" encoding="UTF-8" standalone="no"?>
<svg width="28px" height="36px" class="ic-icon-svg ic-icon-svg--dashboard" viewBox="0 0 28 36" version="1.1" xmlns="http://www.w3.org/2000/svg" xmlns:xlink="http://www.w3.org/1999/xlink" xmlns:sketch="http://www.bohemiancoding.com/sketch/ns">
    <!-- Generator: Sketch 3.3.2 (12043) - http://www.bohemiancoding.com/sketch -->
    <title>icon-grades</title>
    <desc>Created with Sketch.</desc>
    <defs></defs>
    <g id="Page-1" stroke="none" stroke-width="1" fill="none" fill-rule="evenodd" sketch:type="MSPage">
        <g id="_svg_icon_grades" sketch:type="MSLayerGroup" fill="#000000">
            <g id="Page-2" sketch:type="MSShapeGroup">
                <g id="1--Courses-Art-History-Modules">
                    <path d="M19,0 L1.9912443,0 C0.8998975,0 0,0.895299 0,1.999707 L0,34.000293 C0,35.110107 0.8915104,36 1.9912443,36 L26.0087557,36 C27.1001025,36 28,35.104701 28,34.000293 L28,9 L21,9 C19.8954305,9 19,8.104569 19,7 L19,0 L19,0 Z M21,0 L21,7 L28,7 L21,0 L21,0 Z M4,6 C4,5.447715 4.455761,5 5.0024733,5 L14.9975267,5 C15.5511774,5 16,5.443865 16,6 C16,6.552285 15.544239,7 14.9975267,7 L5.0024733,7 C4.4488226,7 4,6.556135 4,6 L4,6 Z M4,12 C4,11.447715 4.4553056,11 4.9918031,11 L23.0081969,11 C23.5559546,11 24,11.443865 24,12 C24,12.552285 23.5446944,13 23.0081969,13 L4.9918031,13 C4.4440454,13 4,12.556135 4,12 L4,12 Z M4,18 C4,17.447715 4.4553056,17 4.9918031,17 L23.0081969,17 C23.5559546,17 24,17.443865 24,18 C24,18.552285 23.5446944,19 23.0081969,19 L4.9918031,19 C4.4440454,19 4,18.556135 4,18 L4,18 Z M4,24 C4,23.447715 4.4553056,23 4.9918031,23 L23.0081969,23 C23.5559546,23 24,23.443865 24,24 C24,24.552285 23.5446944,25 23.0081969,25 L4.9918031,25 C4.4440454,25 4,24.556135 4,24 L4,24 Z M4,30 C4,29.447715 4.4553056,29 4.9918031,29 L23.0081969,29 C23.5559546,29 24,29.443865 24,30 C24,30.552285 23.5446944,31 23.0081969,31 L4.9918031,31 C4.4440454,31 4,30.556135 4,30 L4,30 Z" id="icon-grades"></path>
                </g>
            </g>
        </g>
    </g>
</svg>

<svg width="28" height="36" class="ic-icon-svg ic-icon-svg--dashboard" viewBox="0 0 28 36" xmlns="http://www.w3.org/2000/svg"><title>icon-grades</title><path d="M19 0H1.99A2 2 0 0 0 0 2v32c0 1.11.892 2 1.99 2h24.02A2 2 0 0 0 28 34V9h-7a2 2 0 0 1-2-2V0zm2 0v7h7l-7-7zM4 6c0-.552.456-1 1.002-1h9.996a1 1 0 0 1 0 2H5.002A1 1 0 0 1 4 6zm0 6c0-.552.455-1 .992-1h18.016c.548 0 .992.444.992 1 0 .552-.455 1-.992 1H4.992A.993.993 0 0 1 4 12zm0 6c0-.552.455-1 .992-1h18.016c.548 0 .992.444.992 1 0 .552-.455 1-.992 1H4.992A.993.993 0 0 1 4 18zm0 6c0-.552.455-1 .992-1h18.016c.548 0 .992.444.992 1 0 .552-.455 1-.992 1H4.992A.993.993 0 0 1 4 24zm0 6c0-.552.455-1 .992-1h18.016c.548 0 .992.444.992 1 0 .552-.455 1-.992 1H4.992A.993.993 0 0 1 4 30z" fill="currentColor" fill-rule="evenodd"/></svg>
